images/icons/generic-shopping-bag.svg

<svg fill="none" height="24" viewBox="0 0 24 24" width="24" xmlns="http://www.w3.org/2000/svg"><path d="m4.28571 24c-.62857 0-1.16666-.2238-1.61428-.6714s-.67143-.9857-.67143-1.6143v-13.7143c0-.62857.22381-1.16667.67143-1.61429.44762-.44761.98571-.67142 1.61428-.67142h2.28572c0-1.58096.55714-2.92858 1.67143-4.04286 1.11428-1.114287 2.46194-1.67143 4.04284-1.67143 1.581 0 2.9286.557143 4.0429 1.67143 1.1143 1.11428 1.6714 2.4619 1.6714 4.04286h2.2857c.6286 0 1.1667.22381 1.6143.67142.4476.44762.6714.98572.6714 1.61429v13.7143c0 .6286-.2238 1.1667-.6714 1.6143s-.9857.6714-1.6143.6714zm7.99999-9.1429c1.581 0 2.9286-.5571 4.0429-1.6714s1.6714-2.4619 1.6714-4.04284h-2.2857c0 .95234-.3333 1.76194-1 2.42854-.6667.6667-1.4762 1-2.4286 1s-1.7619-.3333-2.42856-1c-.66666-.6666-1-1.4762-1-2.42854h-2.28571c0 1.58094.55714 2.92854 1.67143 4.04284 1.11428 1.1143 2.46194 1.6714 4.04284 1.6714zm-3.42856-9.14281h6.85716c0-.95239-.3333-1.76191-1-2.42858-.6667-.66666-1.4762-1-2.4286-1s-1.7619.33334-2.42856 1c-.66666.66667-1 1.47619-1 2.42858z" fill="#fff"/></svg>

<svg width="24" height="24" viewBox="0 0 24 24" fill="none" xmlns="http://www.w3.org/2000/svg">
<path d="M4.28571 24C3.65714 24 3.11905 23.7762 2.67143 23.3286C2.22381 22.881 2 22.3429 2 21.7143V8C2 7.37143 2.22381 6.83333 2.67143 6.38571C3.11905 5.9381 3.65714 5.71429 4.28571 5.71429H6.57143C6.57143 4.13333 7.12857 2.78571 8.24286 1.67143C9.35714 0.557143 10.7048 0 12.2857 0C13.8667 0 15.2143 0.557143 16.3286 1.67143C17.4429 2.78571 18 4.13333 18 5.71429H20.2857C20.9143 5.71429 21.4524 5.9381 21.9 6.38571C22.3476 6.83333 22.5714 7.37143 22.5714 8V21.7143C22.5714 22.3429 22.3476 22.881 21.9 23.3286C21.4524 23.7762 20.9143 24 20.2857 24H4.28571ZM12.2857 14.8571C13.8667 14.8571 15.2143 14.3 16.3286 13.1857C17.4429 12.0714 18 10.7238 18 9.14286H15.7143C15.7143 10.0952 15.381 10.9048 14.7143 11.5714C14.0476 12.2381 13.2381 12.5714 12.2857 12.5714C11.3333 12.5714 10.5238 12.2381 9.85714 11.5714C9.19048 10.9048 8.85714 10.0952 8.85714 9.14286H6.57143C6.57143 10.7238 7.12857 12.0714 8.24286 13.1857C9.35714 14.3 10.7048 14.8571 12.2857 14.8571ZM8.85714 5.71429H15.7143C15.7143 4.7619 15.381 3.95238 14.7143 3.28571C14.0476 2.61905 13.2381 2.28571 12.2857 2.28571C11.3333 2.28571 10.5238 2.61905 9.85714 3.28571C9.19048 3.95238 8.85714 4.7619 8.85714 5.71429Z" fill="white"/>
</svg>
